symbols-de/shields/motorway_5x3_z18.svg

<?xml version="1.0" encoding="UTF-8" standalone="no"?>
<svg
   xmlns:dc="http://purl.org/dc/elements/1.1/"
   xmlns:cc="http://creativecommons.org/ns#"
   xmlns:rdf="http://www.w3.org/1999/02/22-rdf-syntax-ns#"
   xmlns:svg="http://www.w3.org/2000/svg"
   xmlns="http://www.w3.org/2000/svg"
   xmlns:sodipodi="http://sodipodi.sourceforge.net/DTD/sodipodi-0.dtd"
   xmlns:inkscape="http://www.inkscape.org/namespaces/inkscape"
   width="100%"
   height="100%"
   viewBox="0 0 45.0 39.0"
   id="svg2"
   version="1.1"
   inkscape:version="0.91 r13725"
   sodipodi:docname="autobahn_5x3_z18.svg">
  <metadata
     id="metadata9">
    <rdf:RDF>
      <cc:Work
         rdf:about="">
        <dc:format>image/svg+xml</dc:format>
        <dc:type
           rdf:resource="http://purl.org/dc/dcmitype/StillImage" />
        <dc:title></dc:title>
      </cc:Work>
    </rdf:RDF>
  </metadata>
  <defs
     id="defs7" />
  <sodipodi:namedview
     pagecolor="#ffffff"
     bordercolor="#666666"
     borderopacity="1"
     objecttolerance="10"
     gridtolerance="10"
     guidetolerance="10"
     inkscape:pageopacity="0"
     inkscape:pageshadow="2"
     inkscape:window-width="1057"
     inkscape:window-height="721"
     id="namedview5"
     showgrid="false"
     inkscape:zoom="6.0512821"
     inkscape:cx="22.5"
     inkscape:cy="19.5"
     inkscape:window-x="425"
     inkscape:window-y="122"
     inkscape:window-maximized="0"
     inkscape:current-layer="svg2" />
  <path
     style="fill:#365eaf;fill-opacity:1;stroke:#0528a2;stroke-width:1;stroke-miterlimit:4;stroke-dasharray:none;stroke-opacity:1"
     d="m 22.499999,0.50000058 c -0.31541,0 -0.472656,0.003876 -0.472656,0.0139167 L 1.2106365,2.6152351 C 0.73751629,2.7159909 0.5,2.8683062 0.5,3.069825 l 0,32.860348 c 0,0.20152 0.23751843,0.35383 0.7106365,0.45459 L 22.027343,38.48608 c 0,0.0101 0.157249,0.01392 0.472656,0.01392 0.315413,0 0.472657,-0.0038 0.472657,-0.01392 l 20.816707,-2.101317 c 0.47312,-0.100754 0.606916,-0.266673 0.710637,-0.45459 0,-17.646728 0,-17.269568 0,-32.8603484 0,-0.2015187 -0.237517,-0.3538336 -0.710637,-0.4545898 L 22.972656,0.51391661 c 0,-0.0100429 -0.15725,-0.0139167 -0.472657,-0.0139167 z"
     id="path6"
     inkscape:connector-curvature="0"
     sodipodi:nodetypes="sccccccsccccccs" />
</svg>

<?xml version="1.0" encoding="UTF-8"?>
<svg xmlns="http://www.w3.org/2000/svg" xmlns:xlink="http://www.w3.org/1999/xlink" width="44pt" height="51pt" viewBox="0 0 44 51" version="1.1">
<g id="surface1">
<path style="fill-rule:nonzero;fill:rgb(21.176471%,36.862745%,68.627451%);fill-opacity:1;stroke-width:1;stroke-linecap:butt;stroke-linejoin:miter;stroke:rgb(1.960784%,15.686275%,63.529412%);stroke-opacity:1;stroke-miterlimit:4;" d="M 22.5 0.498851 C 22.184393 0.498851 22.028587 0.504825 22.028587 0.513787 L 1.210494 2.616728 C 0.73908 2.715303 0.499379 2.867647 0.499379 3.070772 L 0.499379 35.929228 C 0.499379 36.132353 0.73908 36.284697 1.210494 36.383272 L 22.028587 38.486213 C 22.028587 38.495175 22.184393 38.501149 22.5 38.501149 C 22.815607 38.501149 22.971413 38.495175 22.971413 38.486213 L 43.789506 36.383272 C 44.26092 36.284697 44.396751 36.117417 44.500621 35.929228 C 44.500621 18.284237 44.500621 18.660616 44.500621 3.070772 C 44.500621 2.867647 44.26092 2.715303 43.789506 2.616728 L 22.971413 0.513787 C 22.971413 0.504825 22.815607 0.498851 22.5 0.498851 Z M 22.5 0.498851 " transform="matrix(0.977778,0,0,1.307692,0,0)"/>
</g>
</svg>
